src/pos-icons/account-multiple-minus.svg

<svg height="24" viewBox="0 0 24 24" width="24" xmlns="http://www.w3.org/2000/svg"><path d="m19 17v2h-12v-2s0-4 6-4 6 4 6 4m-3-9a3 3 0 1 0 -3 3 3 3 0 0 0 3-3m3.2 5.06a5.6 5.6 0 0 1 1.8 3.94v2h3v-2s0-3.45-4.8-3.94m-1.2-8.06a2.91 2.91 0 0 0 -.89.14 5 5 0 0 1 0 5.72 2.91 2.91 0 0 0 .89.14 3 3 0 0 0 0-6m-10 5h-8v2h8z"/></svg>

<?xml version="1.0" encoding="UTF-8"?><!DOCTYPE svg PUBLIC "-//W3C//DTD SVG 1.1//EN" "http://www.w3.org/Graphics/SVG/1.1/DTD/svg11.dtd"><svg xmlns="http://www.w3.org/2000/svg" xmlns:xlink="http://www.w3.org/1999/xlink" version="1.1" id="mdi-account-multiple-minus" width="24" height="24" viewBox="0 0 24 24"><path d="M19 17V19H7V17S7 13 13 13 19 17 19 17M16 8A3 3 0 1 0 13 11A3 3 0 0 0 16 8M19.2 13.06A5.6 5.6 0 0 1 21 17V19H24V17S24 13.55 19.2 13.06M18 5A2.91 2.91 0 0 0 17.11 5.14A5 5 0 0 1 17.11 10.86A2.91 2.91 0 0 0 18 11A3 3 0 0 0 18 5M8 10H0V12H8Z" /></svg>
